public/images/react-gray.svg

<svg width="100" height="90" viewBox="0 0 100 90" fill="none" xmlns="http://www.w3.org/2000/svg">
<g id="Asset 124" clip-path="url(#clip0_304_13316)">
<g id="Group">
<path id="Vector" d="M50.1095 53.4142C51.8544 53.4161 53.5606 52.9005 55.0124 51.9326C56.4641 50.9646 57.5962 49.5878 58.2652 47.9764C58.9343 46.3649 59.1104 44.5912 58.7712 42.8796C58.4321 41.168 57.5928 39.5955 56.3597 38.361C55.1266 37.1265 53.5551 36.2855 51.8439 35.9444C50.1327 35.6032 48.3588 35.7773 46.7465 36.4446C45.1343 37.1119 43.7562 38.2423 42.7866 39.693C41.817 41.1437 41.2995 42.8493 41.2995 44.5942C41.2982 45.752 41.5251 46.8986 41.9673 47.9687C42.4094 49.0387 43.0581 50.0111 43.8764 50.8302C44.6946 51.6494 45.6662 52.2992 46.7358 52.7426C47.8053 53.186 48.9517 53.4142 50.1095 53.4142Z" fill="#B9B9B9"/>
<path id="Vector_2" d="M50.1095 62.6542C76.2295 62.6542 97.4095 54.5742 97.4095 44.5942C97.4095 34.6142 76.2295 26.5342 50.1095 26.5342C23.9895 26.5342 2.7995 34.6242 2.7995 44.5942C2.7995 54.5642 23.9795 62.6542 50.1095 62.6542Z" stroke="#B9B9B9" stroke-width="5"/>
<path id="Vector_3" d="M34.4595 53.6241C47.5295 76.2541 65.1195 90.5541 73.7595 85.5641C82.3995 80.5741 78.8095 58.1941 65.7595 35.5641C52.7095 12.9341 35.0895 -1.36589 26.4495 3.62411C17.8095 8.61411 21.3995 31.0041 34.4595 53.6241Z" stroke="#B9B9B9" stroke-width="5"/>
<path id="Vector_4" d="M34.4595 35.5642C21.3995 58.1942 17.8095 80.5642 26.4595 85.5642C35.1095 90.5642 52.6995 76.2542 65.7595 53.6242C78.8195 30.9942 82.4095 8.6242 73.7595 3.6242C65.1095 -1.3758 47.5295 12.9342 34.4595 35.5642Z" stroke="#B9B9B9" stroke-width="5"/>
</g>
</g>
<defs>
<clipPath id="clip0_304_13316">
<rect width="99.61" height="88.92" fill="white" transform="translate(0.2995 0.134277)"/>
</clipPath>
</defs>
</svg>

<svg xmlns="http://www.w3.org/2000/svg" width="100" height="90" fill="none"><g clip-path="url(#a)"><path fill="#B9B9B9" d="M50.11 53.414a8.821 8.821 0 1 0-8.143-5.445 8.807 8.807 0 0 0 8.142 5.445Z"/><path stroke="#B9B9B9" stroke-width="5" d="M50.11 62.654c26.12 0 47.3-8.08 47.3-18.06 0-9.98-21.18-18.06-47.3-18.06-26.12 0-47.31 8.09-47.31 18.06 0 9.97 21.18 18.06 47.31 18.06Z"/><path stroke="#B9B9B9" stroke-width="5" d="M34.46 53.624c13.07 22.63 30.66 36.93 39.3 31.94 8.64-4.99 5.05-27.37-8-50S35.09-1.366 26.45 3.624c-8.64 4.99-5.05 27.38 8.01 50Z"/><path stroke="#B9B9B9" stroke-width="5" d="M34.46 35.564c-13.06 22.63-16.65 45-8 50 8.65 5 26.24-9.31 39.3-31.94 13.06-22.63 16.65-45 8-50-8.65-5-26.23 9.31-39.3 31.94Z"/></g><defs><clipPath id="a"><path fill="#fff" d="M.3.134h99.61v88.92H.3z"/></clipPath></defs></svg>
